packages/icons/general/TrashLine.svg

<svg width="24" height="24" viewBox="0 0 24 24" fill="none" xmlns="http://www.w3.org/2000/svg">
    <path fill-rule="evenodd" clip-rule="evenodd" d="M3.23633 7.41328C3.23633 6.97145 3.5945 6.61328 4.03633 6.61328H19.965C20.4069 6.61328 20.765 6.97145 20.765 7.41328C20.765 7.85511 20.4069 8.21328 19.965 8.21328H4.03633C3.5945 8.21328 3.23633 7.85511 3.23633 7.41328Z" fill="#767F8D"/>
    <path fill-rule="evenodd" clip-rule="evenodd" d="M9.55195 9.70703C9.99378 9.70703 10.352 10.0652 10.352 10.507V16.7718C10.352 17.2136 9.99378 17.5718 9.55195 17.5718C9.11013 17.5718 8.75195 17.2136 8.75195 16.7718V10.507C8.75195 10.0652 9.11013 9.70703 9.55195 9.70703Z" fill="#767F8D"/>
    <path fill-rule="evenodd" clip-rule="evenodd" d="M11.9992 9.70703C12.441 9.70703 12.7992 10.0652 12.7992 10.507V16.7718C12.7992 17.2136 12.441 17.5718 11.9992 17.5718C11.5574 17.5718 11.1992 17.2136 11.1992 16.7718V10.507C11.1992 10.0652 11.5574 9.70703 11.9992 9.70703Z" fill="#767F8D"/>
    <path fill-rule="evenodd" clip-rule="evenodd" d="M14.4465 9.70703C14.8883 9.70703 15.2465 10.0652 15.2465 10.507V16.7718C15.2465 17.2136 14.8883 17.5718 14.4465 17.5718C14.0047 17.5718 13.6465 17.2136 13.6465 16.7718V10.507C13.6465 10.0652 14.0047 9.70703 14.4465 9.70703Z" fill="#767F8D"/>
    <path fill-rule="evenodd" clip-rule="evenodd" d="M7.39102 7.29688V18.2985C7.39102 18.9612 7.92827 19.4985 8.59102 19.4985H15.4069C16.0697 19.4985 16.6069 18.9612 16.6069 18.2985V7.29688H18.2069V18.2985C18.2069 19.8449 16.9533 21.0985 15.4069 21.0985H8.59102C7.04462 21.0985 5.79102 19.8449 5.79102 18.2985V7.29688H7.39102Z" fill="#767F8D"/>
    <path fill-rule="evenodd" clip-rule="evenodd" d="M14.2945 6.61646C14.2945 5.44779 13.3471 4.50039 12.1785 4.50039C11.0098 4.50039 10.0624 5.44779 10.0624 6.61646L8.46238 6.61646C8.46238 4.56413 10.1261 2.90039 12.1785 2.90039C14.2308 2.90039 15.8945 4.56413 15.8945 6.61646L14.2945 6.61646Z" fill="#767F8D"/>
</svg>

<svg xmlns="http://www.w3.org/2000/svg" fill="none" viewBox="0 0 24 24">
    <path fill="#767F8D" fill-rule="evenodd" d="M3.236 7.413a.8.8 0 0 1 .8-.8h15.929a.8.8 0 1 1 0 1.6H4.036a.8.8 0 0 1-.8-.8Zm6.316 2.294a.8.8 0 0 1 .8.8v6.265a.8.8 0 0 1-1.6 0v-6.265a.8.8 0 0 1 .8-.8Zm2.448 0a.8.8 0 0 1 .8.8v6.265a.8.8 0 0 1-1.6 0v-6.265a.8.8 0 0 1 .8-.8Zm2.447 0a.8.8 0 0 1 .8.8v6.265a.8.8 0 0 1-1.6 0v-6.265a.8.8 0 0 1 .8-.8Z" clip-rule="evenodd"/>
    <path fill="#767F8D" fill-rule="evenodd" d="M7.391 7.297v11.002a1.2 1.2 0 0 0 1.2 1.2h6.816a1.2 1.2 0 0 0 1.2-1.2V7.296h1.6v11.002a2.8 2.8 0 0 1-2.8 2.8H8.59a2.8 2.8 0 0 1-2.8-2.8V7.296h1.6Zm6.903-.681a2.116 2.116 0 1 0-4.232 0h-1.6a3.716 3.716 0 1 1 7.433 0h-1.6Z" clip-rule="evenodd"/>
</svg>
